app/images/customer-modal/small-right-arrow.svg

<svg width="84" height="40" viewBox="0 0 84 40" fill="none" xmlns="http://www.w3.org/2000/svg">
<path d="M3.18706 31.6566C2.15991 31.2503 0.997915 31.7537 0.591677 32.7809C0.185438 33.808 0.688788 34.97 1.71594 35.3762L3.18706 31.6566ZM76.4128 1.75962C76.0131 0.729879 74.8544 0.219064 73.8247 0.618688L57.044 7.13094C56.0143 7.53057 55.5034 8.6893 55.9031 9.71904C56.3027 10.7488 57.4614 11.2596 58.4912 10.86L73.4073 5.07131L79.196 19.9875C79.5956 21.0172 80.7543 21.528 81.7841 21.1284C82.8138 20.7288 83.3246 19.57 82.925 18.5403L76.4128 1.75962ZM1.71594 35.3762C10.3194 38.7789 24.3075 41.2396 38.5072 37.6087C52.8138 33.9503 67.1874 24.1387 76.3783 3.28997L72.7182 1.67644C64.0263 21.393 50.6421 30.3769 37.5163 33.7333C24.2836 37.1171 11.1647 34.8117 3.18706 31.6566L1.71594 35.3762Z" fill="#8446F5"/>
</svg>

<svg width="84" height="40" fill="none" xmlns="http://www.w3.org/2000/svg"><path d="M3.187 31.657a2 2 0 10-1.471 3.72l1.471-3.72zM76.413 1.76A2 2 0 0073.825.619L57.044 7.13a2 2 0 101.447 3.729l14.916-5.789 5.789 14.917a2 2 0 003.729-1.448L76.413 1.76zM1.716 35.376c8.603 3.403 22.591 5.864 36.791 2.233 14.307-3.659 28.68-13.47 37.871-34.319l-3.66-1.614c-8.692 19.717-22.076 28.7-35.202 32.057-13.232 3.384-26.351 1.079-34.329-2.076l-1.471 3.72z" fill="#8446F5"/></svg>
